!!!OTL: Minchen wollt spaziern gehn (Band 1), S. 193
!!!id: P0840
**kern
*clefG2
*k[b-e-]
*B-:
{8b-
=1
8b-
4d
8e-
4f
=2yy
8b-
=3
8b-
8a
8g
4g
8f}
=4
{8c
8e-
8g
8f
8a
8cc
=5
[2b-
8b-]}
8r
=6
{4d
8e-
4f
8b-
=7
8b-
8a
8g
4g
8f}
=8
{8c
8e-
8g
8f
8a
8cc
=9
[2b-
8b-]}
=10
{8f
=11
4f
8dd
8dd
8cc
8cc
=12
8b-
8dd
8dd
8cc
8b-
8a
=13
8g
8g
8g
8a
8g
8a
=14
[2b-
8b-]}
=15
{8f
=16
4f
8dd
8dd
8cc
8cc
=17
8b-
8dd
8dd
8cc
8b-
8a
=18
8g
8g
8g
8a
8g
8a
=19
[2b-
8b-]}
8r
==
*-
!!!minrhy: 8
!!!meters: 6/8 ]  ZZ[6
!!!cut: Minchen wollt spaziern gehn (Band 1), S. 193
!!!reg: Lothringen
!!!trd: PINCK, Louis: Verklingende Weisen, Bd 1, Metz 1928
!!!rhy1:   X_XX_X  XXXX_X
!!!rhy2: XXXXXX  X__^0
!!!key: P0840  08 Bb 6/8 ]  ZZ[6
!!!mod: HEPTATONIK IONISCH]  AMBITUS[9
!!!kad: -51-5111
!!!akz: -3-51-6_-2-511_-3-51-6_-2-511_-5312-6-711_-5312-6-711_
!!!fot: 'a__b__a__b__c__c__
!!!for: 'a__b__a__bv_c__cv_
!!!fok: '^a_/__^a_/__~a_~a_
!! PHRAS[VORWIEGEND VOLLTAKTIG]
!!!fkt: Liebe, Untreue, Beischlaf
!! LOTH VKL
!! PR[23] 2K[10] 2G[16] 3K[0] 3G[3] 4A[10] 4Ü[0] 5A[0] 6K[0] 6G[0]
!! 7K[0] 7G[0] 8A[0] MEHR[0] SI[39] ABS[31] SR[26] SP[13]
!! ST[8] 2k[10] 2g[16] 3k[3] 3g[3] 4d[3] 4ü[0] 5d[3] 6k[0] 6g[0]
!! 7k[0] 7g[0] 8d[0] mehr[0] si[39] dm[0] sr[26] sp[13]
!! 1F[71] 2F[18] 3F[0] 4F[0] LF[0] 2P[12] 3P[0] 4P[0] TRI[0] DF[3] AB[34]
!! TF[0] U3K[0] U3[0] U4[0] U4Ü[0] U5[0] U6K[0] U6[0] U7K[0] U7[0]
!! N1[25] N2K[0] N2[25] N3K[16] N3[0] N4[13] N4Ü[0] N5[22] N6K[0] N6[0]
!!!n7k: 0] N7[0] O1[0] O2K[0] O2[0] O3K[0] O3[0] HÖ[0
